X:1
T:Abide with Me, ’Tis Eventide
T:Abide with Me, ’Tis Eventide
T:Harrison Millard
T:Martin Lowrie Hofford, 1884
T:Public Domain Courtesy of the Cyber Hymnal™
C:Harrison Millard
Z:Public Domain
Z:Courtesy of the Cyber Hymnal™
%%score ( 1 2 ) ( 3 4 )
L:1/8
Q:1/4=95
M:3/4
K:Eb
V:1 treble 
V:2 treble 
V:3 bass 
V:4 bass 
V:1
 [EG]2 | [EG]3 [EG] [EB]>[EG] | [EG]>[DF] [DF]3 [DF] | [FA]3 [FA] [EA][FA] | [EG]4 [EG]2 | %5
w: 1.~A-|bide with me, ’tis|e- ven- tide! The|day is past and|gone; The|
w: 2.~A-|bide with me, ’tis|e- ven- tide! Thy|walk to- day with|me Has|
w: 3.~A-|bide with me, ’tis|e- ven- tide! And|lone will be the|night, If|
 [EG]3 [EG] [EB]>[EG] | [EG]>[DF] [DF]3 [DF] | [EA]3 [EA] [DG][DF] | E4 E2 | [Ec]3 [Ec] [Ee]>[Ec] | %10
w: sha- dows of the|even- ing fall; The|night is com- ing|on! With-|in my heart a|
w: made my heart with-|in me burn, As|I com- muned with|Thee. Thy|ear- nest words have|
w: I can- not com-|mune with Thee, Nor|find in Thee my|light. The|dark- ness of the|
 [Ec]>[EB] [EB]3 [EG] | [DF]3 [DB] [E=A][Ec] | [DB]4 ||"^Refrain" B2 | [Ad]3 [Ad] [Ac][AB] | %15
w: wel- come guest, With-|in my home a-|bide.|||
w: filled my soul And|kept me near Thy|side.|O|Sav- ior, stay this|
w: world, I fear, Would|in my home a-|bide.|||
 [Ec]>[EB] [EB]3 [EG] | [DB]3 [DF] [EA][FA] | [EG]4 [FB]2 | [Ge]3 [Ge] [Ed][Ec] | %19
w: ||||
w: night with me; Be-|hold, ’tis ev- en-|tide! O|Sav- ior, stay this|
w: ||||
 [EB]>[EG] [EB]3 [CE] | [EA]3 [EA] [DG][DF] | E6 |] %22
w: |||
w: night with me; Be-|hold, ’tis ev- en-|tide!|
w: |||
V:2
 x2 | x6 | x6 | x6 | x6 | x6 | x6 | x6 | E4 E2 | x6 | x6 | x6 | x4 || B2 | x6 | x6 | x6 | x6 | x6 | %19
 x6 | x6 | E6 |] %22
V:3
 [E,B,]2 | [E,B,]3 [E,B,] [E,G,]>[E,B,] | [B,,B,]>[B,,B,] [B,,B,]3 [B,,B,] | %3
 [B,,B,]3 [B,,B,] [C,B,][D,B,] | [E,B,]4 [E,B,]2 | [E,B,]3 [E,B,] [E,G,]>[E,B,] | %6
 [B,,B,]>[B,,B,] [B,,B,]3 [B,,B,] | [C,A,]3 [C,A,] [B,,A,][B,,A,] | [E,G,]4 [E,G,]2 | %9
 A,3 A, [A,C]>A, | [E,A,]>[E,G,] [E,G,]3 [E,B,] | [F,B,]3 [F,B,] [F,C][F,=A,] | [B,,B,]4 || %13
 [B,,B,]2 | [B,,B,]3 [B,,B,] [B,,B,][B,,B,] | [E,A,]>[E,G,] [E,G,]3 [E,G,] | %16
 [B,,B,]3 [B,,B,] [C,B,][D,B,] | [E,B,]4 [D,B,]2 | [C,G,]3 [C,G,] A,A, | [E,G,]>[E,B,] [E,G,]3 A, | %20
 [F,C]3 [F,C] [B,,B,][B,,A,] | [E,G,]6 |] %22
V:4
 x2 | x6 | x6 | x6 | x6 | x6 | x6 | x6 | x6 | A,3 A, x/ A,/ x | x6 | x6 | x4 || x2 | x6 | x6 | x6 | %17
 x6 | x4 A,A, | x5 A, | x6 | x6 |] %22

